assets/img/icons/clock-emergency.svg

<svg width="32" height="32" viewBox="0 0 32 32" fill="none" xmlns="http://www.w3.org/2000/svg">
<path d="M28.6667 8.66682C28.328 8.66682 27.9893 8.53882 27.7293 8.28149C27.2053 7.76416 27.2013 6.92016 27.7187 6.39616L29.7187 4.37349C30.236 3.84949 31.08 3.84549 31.604 4.36282C32.128 4.88016 32.132 5.72416 31.6147 6.24816L29.6147 8.27082C29.3547 8.53482 29.0107 8.66682 28.6667 8.66682ZM24.3267 4.31349L25.5533 1.94682C25.892 1.29349 25.6373 0.488156 24.984 0.14949C24.328 -0.189177 23.524 0.0654898 23.1867 0.718823L21.96 3.08549C21.6213 3.73882 21.876 4.54416 22.5293 4.88282C22.7253 4.98416 22.936 5.03216 23.1413 5.03216C23.624 5.03216 24.0893 4.77082 24.3267 4.31349ZM4.27067 8.28149C4.79467 7.76416 4.79867 6.92016 4.28133 6.39616L2.28133 4.37349C1.764 3.84949 0.92 3.84549 0.396 4.36282C-0.128 4.88016 -0.132 5.72416 0.385333 6.24816L2.38533 8.27082C2.64533 8.53482 2.98933 8.66682 3.33333 8.66682C3.672 8.66682 4.01067 8.53882 4.27067 8.28149ZM9.47067 4.88416C10.124 4.54549 10.38 3.74016 10.04 3.08682L8.81333 0.720156C8.476 0.0681565 7.67333 -0.187843 7.016 0.150823C6.36267 0.48949 6.10667 1.29482 6.44667 1.94816L7.67333 4.31482C7.91067 4.77216 8.376 5.03482 8.85867 5.03482C9.06533 5.03482 9.27467 4.98549 9.47067 4.88416ZM27.12 23.5615C26.868 23.8402 26.5093 24.0002 26.132 24.0002H5.868C5.49067 24.0002 5.132 23.8402 4.88 23.5615C4.62667 23.2828 4.504 22.9095 4.54133 22.5335L5.42133 13.7362C5.748 10.4655 8.47333 8.00016 11.76 8.00016H20.2413C23.528 8.00016 26.2533 10.4668 26.58 13.7362L27.46 22.5335C27.4973 22.9082 27.3733 23.2815 27.12 23.5615ZM16 14.6668C16 13.9308 15.4027 13.3335 14.6667 13.3335H12.028C11.3427 13.3335 10.7693 13.8522 10.7013 14.5335L10.4347 17.2002C10.3613 17.9322 10.896 18.5868 11.6293 18.6602C11.6747 18.6642 11.7187 18.6668 11.764 18.6668C12.4413 18.6668 13.02 18.1535 13.0893 17.4668L13.236 16.0002H14.6693C15.4053 16.0002 16.0027 15.4028 16.0027 14.6668H16ZM32 30.6668C32 31.4028 31.4027 32.0002 30.6667 32.0002H1.33333C0.597333 32.0002 0 31.4028 0 30.6668C0 28.4575 1.79067 26.6668 4 26.6668H28C30.2093 26.6668 32 28.4575 32 30.6668Z" fill="white"/>
</svg>

<svg width="32" height="32" fill="none" xmlns="http://www.w3.org/2000/svg"><path d="M28.667 8.667a1.333 1.333 0 0 1-.948-2.27l2-2.024a1.333 1.333 0 1 1 1.896 1.875l-2 2.023c-.26.264-.604.396-.948.396Zm-4.34-4.354 1.226-2.366A1.334 1.334 0 0 0 23.187.719L21.96 3.085a1.334 1.334 0 0 0 2.367 1.228ZM4.27 8.281a1.333 1.333 0 0 0 .01-1.885l-2-2.023A1.333 1.333 0 1 0 .385 6.248l2 2.023c.26.264.604.396.948.396.339 0 .678-.128.938-.386Zm5.2-3.397a1.332 1.332 0 0 0 .569-1.797L8.813.72a1.333 1.333 0 0 0-2.366 1.228l1.226 2.367a1.334 1.334 0 0 0 1.798.57Zm17.65 18.678c-.252.278-.61.438-.988.438H5.868a1.332 1.332 0 0 1-1.327-1.466l.88-8.798A6.35 6.35 0 0 1 11.76 8h8.481a6.35 6.35 0 0 1 6.339 5.736l.88 8.797c.037.375-.087.748-.34 1.028ZM16 14.667c0-.736-.597-1.333-1.333-1.333h-2.639c-.685 0-1.259.518-1.327 1.2l-.266 2.666a1.334 1.334 0 0 0 2.654.267L13.236 16h1.433c.736 0 1.334-.597 1.334-1.333H16Zm16 16c0 .736-.597 1.333-1.333 1.333H1.333A1.334 1.334 0 0 1 0 30.667a4 4 0 0 1 4-4h24a4 4 0 0 1 4 4Z" fill="#fff"/></svg>
